X: 991
T: Twilight Time [in C]
C:Al Nevins, Morty Nevins, Artie Dunn and Buck Ram
B: jims roots
M:4/4
L:1/8
Q: 1/4=100
K:C
V:1 
"C"(3^FGg ag fe^de | "E7"zEeE d4 | "Am"(3^DEe fe dcBc | "C7"zCcC _B4 |
"F"zagf "Fm"gfed | "C"gecG "A7"B3F- |[1 ^F"D" e2 F "Dm"=Fedc | "G7"d8"G9":|[2 J^F"D7"e2 F "G7"=FGBd | "C"[E8c] ||
"E7"B6Bc |ceBc e3d | "Am"dcBc A2"Fdim"F"Am"E- | E2z "Fdim"F"Am"E4  |
"D7"c6 AB | cdAB c3^c | "G7"dcBc B2 "F"A"G7"G- | G2z "Cdim"_G"G7"F4 ||
% abcbook-tune_id 6298c2976dadfff928f092bc


% abcbook-boost 0
% abcbook-tablature 
% abcbook-transpose 
% abcbook-lastupdated 1654178456425
% abcbook-soundfonts 
% abcbook-repeats 1


